X:1
T:title
M:4/4
Q:120
L:1/8
R:Reel
K:C
e2e'4 ^F ^a |  _D4 ^a'g' ^g ^c' |  _D4 _F2 _e'e |  _g _E ^C2 _g2 _f' _C | d'4 _D _AB _b' |  _F2 _D4 _f' _F |  _G3 ^d'4 _c |  ^D3 ^b2 _a' ^d'2 | 